modules/map-icons/icons/zoo.svg

<svg version="1.2" baseProfile="tiny" xmlns="http://www.w3.org/2000/svg" width="50" height="50" viewBox="0 0 50 50" overflow="inherit"><path d="M45.928 28.949l-.109-.294c-.342-.922-.765-2.068-1.849-2.717-.755-.452-1.633-.609-2.407-.747-.398-.071-.775-.14-1.098-.238l-.284-.1-.045-.015c-3.108-2.496-9.401-2.564-13.321-6.094-5.618-5.056-10.127-10.14-15.198-17.744l-6.336 5.07c-.44.352-1.28.634-1.28 1.901 0 .633.644.73 1.403.495l3.574-1.129 10.022 13.944v7.606c0 1.76-.029 3.362 1.464 4.272l-3.764 15.841h2.535l2.382-7.522 2.383-3.72v11.242h3v-12.508s-.035-2.535 2.5-2.535l2.5 2.535v12.508h2v-10l5.516 10h2.535c-1.268-4-3.051-3.637-3.051-7.439v-2.535c0-2.658 3-5.07 3-7.605v-2.533c0-.602-.078-1.135-.215-1.617.442.09.848.199 1.157.385.479.287.744 1.003 1 1.695l.116.312c.197.515.774.774 1.29.578l.001-.001c.517-.198.776-.775.579-1.291z"/></svg>

<svg version="1.2" baseProfile="tiny" xmlns="http://www.w3.org/2000/svg" width="50" height="50" viewBox="0 0 50 50" overflow="inherit"><path d="M45.928 28.949l-.109-.294c-.342-.922-.765-2.068-1.849-2.717-.755-.452-1.633-.609-2.407-.747a9.94 9.94 0 0 1-1.098-.238l-.284-.1-.045-.015c-3.108-2.496-9.401-2.564-13.321-6.094C21.197 13.688 16.688 8.604 11.617 1L5.281 6.07c-.44.352-1.28.634-1.28 1.901 0 .633.644.73 1.403.495l3.574-1.129L19 21.281v7.606c0 1.76-.029 3.362 1.464 4.272L16.7 49h2.535l2.382-7.522L24 37.758V49h3V36.492s-.035-2.535 2.5-2.535l2.5 2.535V49h2V39l5.516 10h2.535C40.783 45 39 45.363 39 41.561v-2.535c0-2.658 3-5.07 3-7.605v-2.533c0-.602-.078-1.135-.215-1.617.442.09.848.199 1.157.385.479.287.744 1.003 1 1.695l.116.312a1 1 0 0 0 1.29.578l.001-.001a1 1 0 0 0 .579-1.291z"/></svg>
